public/assets/img/icons/github.svg

<?xml version="1.0" encoding="UTF-8" standalone="no"?><svg width="32" height="32" viewBox="0 0 32 32" fill="none" xmlns="http://www.w3.org/2000/svg">
<g clip-path="url(#clip0_13_18)">
<path fill-rule="evenodd" clip-rule="evenodd" d="M15.9999 -0.000107281C12.1978 -0.00407026 8.51845 1.38064 5.62139 3.9059C2.72433 6.43115 0.798873 9.93187 0.190095 13.7807C-0.418683 17.6295 0.329009 21.5749 2.29916 24.9098C4.26931 28.2446 7.33316 30.751 10.9416 31.9797C11.7372 32.1308 12.0319 31.6171 12.0319 31.184C12.0319 30.7509 12.0319 29.7638 12.0319 28.394C7.58252 29.4012 6.6396 26.1982 6.6396 26.1982C6.34313 25.2055 5.71328 24.3526 4.86183 23.7909C3.418 22.7836 4.97969 22.7836 4.97969 22.7836C5.48581 22.857 5.96903 23.0474 6.39275 23.3406C6.81647 23.6338 7.1696 24.022 7.42536 24.4758C7.64269 24.8799 7.93567 25.236 8.28753 25.5237C8.63939 25.8114 9.04319 26.025 9.47574 26.1523C9.9083 26.2796 10.3611 26.318 10.8082 26.2654C11.2552 26.2128 11.6878 26.0701 12.081 25.8457C12.1426 25.0171 12.491 24.2383 13.0632 23.6499C9.50761 23.2369 5.77527 21.8268 5.77527 15.5416C5.75085 13.9129 6.33814 12.3369 7.41553 11.14C6.93472 9.72396 6.99082 8.1743 7.57269 6.79876C7.57269 6.79876 8.91829 6.35557 11.9729 8.48085C14.596 7.7423 17.3646 7.7423 19.9877 8.48085C23.0423 6.35557 24.3781 6.79876 24.3781 6.79876C24.966 8.17235 25.0257 9.72315 24.5451 11.14C25.6225 12.3369 26.2097 13.9129 26.1853 15.5416C26.1853 21.8469 22.4432 23.2268 18.8778 23.5995C19.2601 23.9936 19.5553 24.4674 19.7434 24.9888C19.9315 25.5101 20.0081 26.0668 19.968 26.6212C19.968 28.817 19.968 30.5897 19.968 31.1236C19.968 31.6574 20.2529 32.0704 21.0681 31.9193C24.6652 30.679 27.7157 28.1686 29.6755 24.836C31.6353 21.5033 32.377 17.5651 31.7682 13.7237C31.1594 9.88237 29.2398 6.38767 26.3517 3.86298C23.4637 1.33828 19.7949 -0.0522288 15.9999 -0.0605469V-0.000107281Z" fill="url(#paint0_linear_13_18)"/>
</g>
<defs>
<linearGradient id="paint0_linear_13_18" x1="15.9796" y1="-0.0605469" x2="15.9796" y2="32.0067" gradientUnits="userSpaceOnUse">
<stop stop-color="#23B5D3"/>
<stop offset="1" stop-color="#2094AC"/>
</linearGradient>
<clipPath id="clip0_13_18">
<rect width="32" height="32" fill="white"/>
</clipPath>
</defs>
</svg>

<svg xmlns="http://www.w3.org/2000/svg" width="32" height="32" fill="none" xmlns:v="https://vecta.io/nano"><g clip-path="url(#B)"><path fill-rule="evenodd" d="M16 0C12.198-.004 8.518 1.381 5.621 3.906S.799 9.932.19 13.781.329 21.575 2.299 24.91s5.034 5.841 8.642 7.07c.796.151 1.09-.363 1.09-.796v-2.79c-4.449 1.007-5.392-2.196-5.392-2.196a4.38 4.38 0 0 0-1.778-2.407c-1.444-1.007.118-1.007.118-1.007a3.32 3.32 0 0 1 1.413.557c.424.293.777.681 1.033 1.135.217.404.51.76.862 1.048a3.39 3.39 0 0 0 1.188.629c.433.127.885.166 1.332.113a3.36 3.36 0 0 0 1.273-.42c.062-.829.41-1.607.982-2.196-3.556-.413-7.288-1.823-7.288-8.108-.024-1.629.563-3.205 1.64-4.402-.481-1.416-.425-2.966.157-4.341 0 0 1.346-.443 4.4 1.682 2.623-.739 5.392-.739 8.015 0 3.055-2.125 4.39-1.682 4.39-1.682.588 1.374.648 2.924.167 4.341 1.077 1.197 1.665 2.773 1.64 4.402 0 6.305-3.742 7.685-7.308 8.058a3.89 3.89 0 0 1 .866 1.389 3.97 3.97 0 0 1 .225 1.632v4.502c0 .534.285.947 1.1.796 3.597-1.24 6.648-3.751 8.607-7.083a16.77 16.77 0 0 0 2.093-11.112c-.609-3.841-2.528-7.336-5.416-9.861S19.795-.052 16-.061V0z" fill="url(#A)"/></g><defs><linearGradient id="A" x1="15.98" y1="-.061" x2="15.98" y2="32.007" gradientUnits="userSpaceOnUse"><stop stop-color="#23b5d3"/><stop offset="1" stop-color="#2094ac"/></linearGradient><clipPath id="B"><path fill="#fff" d="M0 0h32v32H0z"/></clipPath></defs></svg>
